Numix-Light/16/status/indicator-keyboard-Bs-2.svg

<?xml version="1.0" encoding="UTF-8" standalone="no"?>
<svg
   xmlns:dc="http://purl.org/dc/elements/1.1/"
   xmlns:cc="http://creativecommons.org/ns#"
   xmlns:rdf="http://www.w3.org/1999/02/22-rdf-syntax-ns#"
   xmlns:svg="http://www.w3.org/2000/svg"
   xmlns="http://www.w3.org/2000/svg"
   xmlns:sodipodi="http://sodipodi.sourceforge.net/DTD/sodipodi-0.dtd"
   xmlns:inkscape="http://www.inkscape.org/namespaces/inkscape"
   viewBox="0 0 16 16"
   id="svg2"
   version="1.1"
   inkscape:version="0.91 r13725"
   sodipodi:docname="indicator-keyboard-Bs-2.svg">
  <metadata
     id="metadata14">
    <rdf:RDF>
      <cc:Work
         rdf:about="">
        <dc:format>image/svg+xml</dc:format>
        <dc:type
           rdf:resource="http://purl.org/dc/dcmitype/StillImage" />
      </cc:Work>
    </rdf:RDF>
  </metadata>
  <defs
     id="defs12" />
  <sodipodi:namedview
     pagecolor="#ffffff"
     bordercolor="#666666"
     borderopacity="1"
     objecttolerance="10"
     gridtolerance="10"
     guidetolerance="10"
     inkscape:pageopacity="0"
     inkscape:pageshadow="2"
     inkscape:window-width="640"
     inkscape:window-height="480"
     id="namedview10"
     showgrid="false"
     inkscape:zoom="14.75"
     inkscape:cx="8"
     inkscape:cy="8"
     inkscape:window-x="65"
     inkscape:window-y="24"
     inkscape:window-maximized="0"
     inkscape:current-layer="svg2" />
  <path
     style="fill:#353535;fill-opacity:1"
     d="M 1.5996094 0 C 0.71320937 2.9605947e-16 0 0.71320937 0 1.5996094 L 0 14.400391 C 2.9605947e-16 15.286791 0.71320937 16 1.5996094 16 L 14.400391 16 C 15.286791 16 16 15.286791 16 14.400391 L 16 1.5996094 C 16 0.71320937 15.286791 0 14.400391 0 L 1.5996094 0 z M 3.7949219 4.8046875 C 4.1309219 4.8046875 4.4480469 4.8327187 4.7480469 4.8867188 C 5.0540469 4.9407187 5.3208281 5.03025 5.5488281 5.15625 C 5.7768281 5.28225 5.9578437 5.4501562 6.0898438 5.6601562 C 6.2278438 5.8641563 6.296875 6.1197812 6.296875 6.4257812 C 6.296875 6.7617812 6.2091563 7.0490625 6.0351562 7.2890625 C 5.8671562 7.5230625 5.6395625 7.6853906 5.3515625 7.7753906 C 5.5315625 7.8173906 5.6957031 7.8770781 5.8457031 7.9550781 C 5.9957031 8.0330781 6.1281875 8.1357187 6.2421875 8.2617188 C 6.3561875 8.3817188 6.4439062 8.5309375 6.5039062 8.7109375 C 6.5699062 8.8849375 6.6015625 9.0957969 6.6015625 9.3417969 C 6.6015625 9.9297971 6.3683906 10.379406 5.9003906 10.691406 C 5.4323906 10.997406 4.7084688 11.150391 3.7304688 11.150391 C 3.6284687 11.150391 3.5090938 11.144813 3.3710938 11.132812 C 3.2390938 11.126813 3.1010312 11.113703 2.9570312 11.095703 C 2.8190312 11.083703 2.6865469 11.068781 2.5605469 11.050781 C 2.4345469 11.026781 2.3282812 11.002516 2.2382812 10.978516 L 2.2382812 4.9765625 C 2.3462812 4.9465625 2.4656563 4.9222969 2.5976562 4.9042969 C 2.7296563 4.8802969 2.8639531 4.8616094 3.0019531 4.8496094 C 3.1459531 4.8316094 3.2840156 4.8204531 3.4160156 4.8144531 C 3.5540156 4.8084531 3.6809219 4.8046875 3.7949219 4.8046875 z M 3.7949219 5.3261719 C 3.5729219 5.3261719 3.3825625 5.3337031 3.2265625 5.3457031 C 3.0765625 5.3577031 2.9516094 5.372625 2.8496094 5.390625 L 2.8496094 7.5859375 L 4.0371094 7.5859375 C 4.2591094 7.5859375 4.4699688 7.5710156 4.6679688 7.5410156 C 4.8659687 7.5050156 5.0356875 7.4453281 5.1796875 7.3613281 C 5.3296875 7.2713281 5.44725 7.1537656 5.53125 7.0097656 C 5.61525 6.8597656 5.6582031 6.6713594 5.6582031 6.4433594 C 5.6582031 6.2393594 5.6114844 6.0676875 5.5214844 5.9296875 C 5.4314844 5.7856875 5.3027656 5.668125 5.1347656 5.578125 C 4.9727656 5.488125 4.7787812 5.426625 4.5507812 5.390625 C 4.3227813 5.348625 4.0709219 5.3261719 3.7949219 5.3261719 z M 9.1386719 6.3359375 C 9.4566719 6.3359375 9.717875 6.3620156 9.921875 6.4160156 C 10.131875 6.4700156 10.279281 6.5185469 10.363281 6.5605469 L 10.228516 7.0820312 C 10.156516 7.0460313 10.033375 6.9975 9.859375 6.9375 C 9.691375 6.8775 9.4413281 6.8476563 9.1113281 6.8476562 C 8.9793281 6.8476562 8.854375 6.8625781 8.734375 6.8925781 C 8.620375 6.9165781 8.5177344 6.9595312 8.4277344 7.0195312 C 8.3377344 7.0735312 8.2668906 7.144375 8.2128906 7.234375 C 8.1588906 7.318375 8.1308594 7.4247813 8.1308594 7.5507812 C 8.1308594 7.6767812 8.155125 7.7830469 8.203125 7.8730469 C 8.251125 7.9630469 8.3201563 8.0451875 8.4101562 8.1171875 C 8.5061563 8.1831875 8.6199531 8.2466406 8.7519531 8.3066406 C 8.8899531 8.3666406 9.0467031 8.4319062 9.2207031 8.5039062 C 9.4007031 8.5759062 9.5704219 8.6505156 9.7324219 8.7285156 C 9.9004219 8.8005156 10.047828 8.8900469 10.173828 8.9980469 C 10.299828 9.1000469 10.402469 9.2269531 10.480469 9.3769531 C 10.558469 9.5209531 10.597656 9.7037812 10.597656 9.9257812 C 10.597656 10.345781 10.437141 10.664859 10.119141 10.880859 C 9.8071404 11.096859 9.3799844 11.203125 8.8339844 11.203125 C 8.4259844 11.203125 8.1124844 11.167703 7.8964844 11.095703 C 7.6804844 11.029703 7.5368438 10.979359 7.4648438 10.943359 L 7.6171875 10.412109 C 7.6351875 10.424109 7.674375 10.444609 7.734375 10.474609 C 7.794375 10.498609 7.8765156 10.528453 7.9785156 10.564453 C 8.0805156 10.594453 8.1998906 10.622484 8.3378906 10.646484 C 8.4818906 10.670484 8.6479844 10.681641 8.8339844 10.681641 C 9.1699844 10.681641 9.4441562 10.627531 9.6601562 10.519531 C 9.8821563 10.405531 9.9941406 10.217125 9.9941406 9.953125 C 9.9941406 9.827125 9.9736406 9.7189062 9.9316406 9.6289062 C 9.8956406 9.5389062 9.8321875 9.4587188 9.7421875 9.3867188 C 9.6521875 9.3147188 9.5328125 9.2456875 9.3828125 9.1796875 C 9.2388125 9.1136875 9.0577969 9.0353125 8.8417969 8.9453125 C 8.6677969 8.8733125 8.5036562 8.8005156 8.3476562 8.7285156 C 8.1916562 8.6505156 8.0535938 8.56475 7.9335938 8.46875 C 7.8135938 8.36675 7.7165312 8.2454219 7.6445312 8.1074219 C 7.5725313 7.9694219 7.5371094 7.8015156 7.5371094 7.6035156 C 7.5371094 7.2255156 7.6789375 6.9195469 7.9609375 6.6855469 C 8.2489375 6.4515469 8.6406719 6.3359375 9.1386719 6.3359375 z M 2.8496094 8.1074219 L 2.8496094 10.564453 C 2.9396094 10.576453 3.0739062 10.591375 3.2539062 10.609375 C 3.4339063 10.621375 3.6167344 10.628906 3.8027344 10.628906 C 4.0787344 10.628906 4.3455156 10.610219 4.6035156 10.574219 C 4.8675156 10.538219 5.098875 10.472953 5.296875 10.376953 C 5.494875 10.280953 5.6534375 10.148469 5.7734375 9.9804688 C 5.8934375 9.8124687 5.9550781 9.5960312 5.9550781 9.3320312 C 5.9550781 9.0920313 5.912125 8.8942813 5.828125 8.7382812 C 5.744125 8.5762813 5.62475 8.449375 5.46875 8.359375 C 5.31275 8.263375 5.1205781 8.1981094 4.8925781 8.1621094 C 4.6705781 8.1261094 4.4205312 8.1074219 4.1445312 8.1074219 L 2.8496094 8.1074219 z M 12.435547 8.7539062 C 12.829447 8.7539062 13.125319 8.851875 13.324219 9.046875 C 13.523119 9.237975 13.623047 9.5044563 13.623047 9.8476562 C 13.623047 9.9997563 13.595616 10.14475 13.541016 10.28125 C 13.486416 10.41385 13.411959 10.543169 13.318359 10.667969 C 13.228659 10.792769 13.124812 10.912297 13.007812 11.029297 C 12.890813 11.146297 12.771291 11.263859 12.650391 11.380859 C 12.548991 11.478359 12.451016 11.578288 12.353516 11.679688 C 12.259916 11.777187 12.173703 11.877116 12.095703 11.978516 C 12.021603 12.076016 11.960862 12.172031 11.914062 12.269531 C 11.871163 12.363131 11.849609 12.457181 11.849609 12.550781 L 11.849609 12.5625 L 13.761719 12.5625 L 13.761719 12.896484 L 11.427734 12.896484 C 11.427734 12.888684 11.425742 12.874969 11.421875 12.855469 L 11.421875 12.755859 C 11.421875 12.572559 11.455184 12.402094 11.521484 12.246094 C 11.587784 12.086194 11.672037 11.937275 11.773438 11.796875 C 11.878737 11.656475 11.994341 11.525197 12.119141 11.404297 C 12.247841 11.283397 12.371281 11.165834 12.488281 11.052734 C 12.585781 10.959134 12.675919 10.869003 12.761719 10.783203 C 12.851419 10.693503 12.929794 10.603366 12.996094 10.509766 C 13.062394 10.416166 13.115297 10.316237 13.154297 10.210938 C 13.193297 10.105638 13.212891 9.9900344 13.212891 9.8652344 C 13.212891 9.5922344 13.138434 9.39825 12.990234 9.28125 C 12.845934 9.16035 12.663706 9.0996094 12.441406 9.0996094 C 12.316606 9.0996094 12.204922 9.1152844 12.107422 9.1464844 C 12.009922 9.1776844 11.923709 9.2149125 11.849609 9.2578125 C 11.779409 9.2968125 11.718669 9.3379594 11.667969 9.3808594 C 11.617269 9.4237594 11.580041 9.4570688 11.556641 9.4804688 L 11.357422 9.2167969 C 11.380822 9.1894969 11.421969 9.1503094 11.480469 9.0996094 C 11.542869 9.0450094 11.619284 8.9921062 11.708984 8.9414062 C 11.802584 8.8907063 11.91035 8.8476 12.03125 8.8125 C 12.15215 8.7735 12.287347 8.7539063 12.435547 8.7539062 z "
     id="path4" />
</svg>

<svg xmlns="http://www.w3.org/2000/svg" viewBox="0 0 16 16">
 <path d="m 1.6 0 c -0.886 0 -1.6 0.713 -1.6 1.6 l 0 12.801 c 0 0.886 0.713 1.6 1.6 1.6 l 12.801 0 c 0.886 0 1.6 -0.713 1.6 -1.6 l 0 -12.801 c 0 -0.886 -0.713 -1.6 -1.6 -1.6 l -12.801 0 z m 2.195 4.805 c 0.336 0 0.653 0.028 0.953 0.082 c 0.306 0.054 0.573 0.144 0.801 0.27 c 0.228 0.126 0.409 0.294 0.541 0.504 c 0.138 0.204 0.207 0.46 0.207 0.766 c 0 0.336 -0.088 0.623 -0.262 0.863 c -0.168 0.234 -0.396 0.396 -0.684 0.486 c 0.18 0.042 0.344 0.102 0.494 0.18 c 0.15 0.078 0.282 0.181 0.396 0.307 c 0.114 0.12 0.202 0.269 0.262 0.449 c 0.066 0.174 0.098 0.385 0.098 0.631 c 0 0.588 -0.233 1.038 -0.701 1.35 c -0.468 0.306 -1.192 0.459 -2.17 0.459 c -0.102 0 -0.221 -0.006 -0.359 -0.018 c -0.132 -0.006 -0.27 -0.019 -0.414 -0.037 c -0.138 -0.012 -0.27 -0.027 -0.396 -0.045 c -0.126 -0.024 -0.232 -0.048 -0.322 -0.072 l 0 -6 c 0.108 -0.03 0.227 -0.054 0.359 -0.072 c 0.132 -0.024 0.266 -0.043 0.404 -0.055 c 0.144 -0.018 0.282 -0.029 0.414 -0.035 c 0.138 -0.006 0.265 -0.01 0.379 -0.01 z m 0 0.521 c -0.222 0 -0.412 0.008 -0.568 0.02 c -0.15 0.012 -0.275 0.027 -0.377 0.045 l 0 2.195 l 1.188 0 c 0.222 0 0.433 -0.015 0.631 -0.045 c 0.198 -0.036 0.368 -0.096 0.512 -0.18 c 0.15 -0.09 0.268 -0.208 0.352 -0.352 c 0.084 -0.15 0.127 -0.338 0.127 -0.566 c 0 -0.204 -0.047 -0.376 -0.137 -0.514 c -0.09 -0.144 -0.219 -0.262 -0.387 -0.352 c -0.162 -0.09 -0.356 -0.152 -0.584 -0.188 c -0.228 -0.042 -0.48 -0.064 -0.756 -0.064 z m 5.344 1.01 c 0.318 0 0.579 0.026 0.783 0.08 c 0.21 0.054 0.357 0.103 0.441 0.145 l -0.135 0.521 c -0.072 -0.036 -0.195 -0.085 -0.369 -0.145 c -0.168 -0.06 -0.418 -0.09 -0.748 -0.09 c -0.132 0 -0.257 0.015 -0.377 0.045 c -0.114 0.024 -0.217 0.067 -0.307 0.127 c -0.09 0.054 -0.161 0.125 -0.215 0.215 c -0.054 0.084 -0.082 0.19 -0.082 0.316 c 0 0.126 0.024 0.232 0.072 0.322 c 0.048 0.09 0.117 0.172 0.207 0.244 c 0.096 0.066 0.21 0.129 0.342 0.189 c 0.138 0.06 0.295 0.125 0.469 0.197 c 0.18 0.072 0.35 0.147 0.512 0.225 c 0.168 0.072 0.315 0.162 0.441 0.27 c 0.126 0.102 0.229 0.229 0.307 0.379 c 0.078 0.144 0.117 0.327 0.117 0.549 c 0 0.42 -0.161 0.739 -0.479 0.955 c -0.312 0.216 -0.739 0.322 -1.285 0.322 c -0.408 0 -0.722 -0.035 -0.938 -0.107 c -0.216 -0.066 -0.36 -0.116 -0.432 -0.152 l 0.152 -0.531 c 0.018 0.012 0.057 0.033 0.117 0.063 c 0.06 0.024 0.142 0.054 0.244 0.09 c 0.102 0.03 0.221 0.058 0.359 0.082 c 0.144 0.024 0.31 0.035 0.496 0.035 c 0.336 0 0.61 -0.054 0.826 -0.162 c 0.222 -0.114 0.334 -0.302 0.334 -0.566 c 0 -0.126 -0.021 -0.234 -0.063 -0.324 c -0.036 -0.09 -0.099 -0.17 -0.189 -0.242 c -0.09 -0.072 -0.209 -0.141 -0.359 -0.207 c -0.144 -0.066 -0.325 -0.144 -0.541 -0.234 c -0.174 -0.072 -0.338 -0.145 -0.494 -0.217 c -0.156 -0.078 -0.294 -0.164 -0.414 -0.26 c -0.12 -0.102 -0.217 -0.223 -0.289 -0.361 c -0.072 -0.138 -0.107 -0.306 -0.107 -0.504 c 0 -0.378 0.142 -0.684 0.424 -0.918 c 0.288 -0.234 0.68 -0.35 1.178 -0.35 z m -6.289 1.771 l 0 2.457 c 0.09 0.012 0.224 0.027 0.404 0.045 c 0.18 0.012 0.363 0.02 0.549 0.02 c 0.276 0 0.543 -0.019 0.801 -0.055 c 0.264 -0.036 0.495 -0.101 0.693 -0.197 c 0.198 -0.096 0.357 -0.228 0.477 -0.396 c 0.12 -0.168 0.182 -0.384 0.182 -0.648 c 0 -0.24 -0.043 -0.438 -0.127 -0.594 c -0.084 -0.162 -0.203 -0.289 -0.359 -0.379 c -0.156 -0.096 -0.348 -0.161 -0.576 -0.197 c -0.222 -0.036 -0.472 -0.055 -0.748 -0.055 l -1.295 0 z m 9.586 0.646 c 0.394 0 0.69 0.098 0.889 0.293 c 0.199 0.191 0.299 0.458 0.299 0.801 c 0 0.152 -0.027 0.297 -0.082 0.434 c -0.055 0.133 -0.129 0.262 -0.223 0.387 c -0.09 0.125 -0.194 0.244 -0.311 0.361 c -0.117 0.117 -0.237 0.235 -0.357 0.352 c -0.101 0.098 -0.199 0.197 -0.297 0.299 c -0.094 0.097 -0.18 0.197 -0.258 0.299 c -0.074 0.097 -0.135 0.194 -0.182 0.291 c -0.043 0.094 -0.064 0.188 -0.064 0.281 l 0 0.012 l 1.912 0 l 0 0.334 l -2.334 0 c 0 -0.008 -0.002 -0.022 -0.006 -0.041 l 0 -0.1 c 0 -0.183 0.033 -0.354 0.1 -0.51 c 0.066 -0.16 0.151 -0.309 0.252 -0.449 c 0.105 -0.14 0.221 -0.272 0.346 -0.393 c 0.129 -0.121 0.252 -0.238 0.369 -0.352 c 0.098 -0.094 0.188 -0.184 0.273 -0.27 c 0.09 -0.09 0.168 -0.18 0.234 -0.273 c 0.066 -0.094 0.119 -0.194 0.158 -0.299 c 0.039 -0.105 0.059 -0.221 0.059 -0.346 c 0 -0.273 -0.074 -0.467 -0.223 -0.584 c -0.144 -0.121 -0.327 -0.182 -0.549 -0.182 c -0.125 0 -0.236 0.016 -0.334 0.047 c -0.098 0.031 -0.184 0.068 -0.258 0.111 c -0.07 0.039 -0.131 0.08 -0.182 0.123 c -0.051 0.043 -0.088 0.076 -0.111 0.1 l -0.199 -0.264 c 0.023 -0.027 0.065 -0.066 0.123 -0.117 c 0.062 -0.055 0.139 -0.108 0.229 -0.158 c 0.094 -0.051 0.201 -0.094 0.322 -0.129 c 0.121 -0.039 0.256 -0.059 0.404 -0.059 z" style="fill:#353535;fill-opacity:1"/>
</svg>
